X:1
T:Lady Dumfries Reel
M:2/4
L:1/8
R:Reel
B:Saunders – New and Complete Instructor for the Violin (Boston, 1847, No. 37, p. 59)
Z:AK/Fiddler’s Companion
K:F
FF/A/4B/4 c/A/a/g/|f/d/c/A/ G/F/G/A/|FF/A/4B/4 c/A/a/g/|f/c/b/a/ Tg>f:||
(f/4g/4a/) (a/f/) g/e/f/d/|c/A/F/A/ G/F/D/g/|(f/4g/4a/) (a/f/) g/e/f/d/|c/A/b/a/ g(f/g/)|
(f/4g/4a/) (a/f/) g/e/f/d/|c/A/F/A/ G/F/D/g/|(f/4g/4a/) (a/f/) g/e/f/d/|c/A/b/a/ Tg>f|]

